assets/svg/1F38F.svg

<svg xmlns="http://www.w3.org/2000/svg" viewBox="0 0 64 64" enable-background="new 0 0 64 64"><path fill="#03786d" d="m32.11 35.15c-5.669-6.277 3.03-9.09 3.692-7.921 2.067 3.675-2.658 9.07-3.692 7.921"/><path fill="#8873a5" d="m35.66 12.719c-7.123-7.502 3.813-10.873 4.645-9.469 2.593 4.394-3.343 10.84-4.645 9.469"/><path fill="#9a85af" d="m61.982 19.954c1.771-.829-3.128-2.291-4.75-3.241 1.683-.634 6.484-.641 5.067-1.853-7.07-6.06-19.347-8.596-29.569-7.938-.212.012.293 11.408.392 17.07 9.09-.363 19.18.489 28.86-4.03"/><path fill="#0b998b" d="m56.43 41.65c1.572-.644-2.808-1.857-4.263-2.631 1.497-.489 5.774-.451 4.5-1.431-6.354-4.898-17.321-7.04-26.426-6.604-.188.008.365 9.105.502 13.625 8.102-.207 17.1.562 25.687-2.959"/><path fill="#ae92c4" d="m35.19 24.341c4.057-.483 6.459-4.873 5.366-9.814-1.091-4.941-5.263-8.551-9.321-8.07-4.056.483-13.174 5.672-12.08 10.612 1.093 4.941 11.979 7.754 16.04 7.272"/><ellipse fill="#5f4589" cx="31.395" cy="13.419" rx="2.739" ry="2.435"/><path fill="#04a69c" d="m32.14 44.867c3.226-.402 5.139-4.076 4.27-8.21-.87-4.131-4.19-7.153-7.419-6.748-3.228.401-10.482 4.743-9.612 8.875.868 4.134 9.531 6.485 12.761 6.083"/><ellipse fill="#25333a" cx="29.12" cy="35.731" rx="2.179" ry="2.038"/><path fill="#d77f27" d="m21.02 62.43c0 .853-.946 1.544-2.118 1.544l0 0c-1.17 0-2.12-.691-2.12-1.544v-55.977c0-.852.95-1.543 2.12-1.543l0 0c1.172 0 2.118.691 2.118 1.543v55.977"/><path fill="#c1702a" d="m18.904 62.43v-55.977c0-.566.432-1.061 1.061-1.329-.313-.131-.673-.214-1.061-.214-1.17 0-2.12.691-2.12 1.543v55.977c0 .853.95 1.544 2.12 1.544.388 0 .748-.081 1.061-.216-.629-.267-1.061-.757-1.061-1.328"/><ellipse fill="#fff" cx="31.393" cy="13.42" rx="3.87" ry="4.412"/><ellipse fill="#25333a" cx="31.394" cy="13.42" rx="2.504" ry="2.311"/><path fill="#fff" d="m32.992 35.733c0 2.438-1.73 4.41-3.865 4.41-2.141 0-3.875-1.972-3.875-4.41 0-2.438 1.733-4.413 3.875-4.413 2.135.0001 3.865 1.976 3.865 4.413"/><path fill="#25333a" d="m31.628 35.733c0 1.274-1.12 2.311-2.5 2.311-1.387 0-2.51-1.036-2.51-2.311 0-1.277 1.123-2.31 2.51-2.31 1.38.0001 2.5 1.033 2.5 2.31"/></svg>

<?xml version="1.0" encoding="UTF-8" standalone="no"?>
<!-- Generator: Adobe Illustrator 16.0.0, SVG Export Plug-In . SVG Version: 6.00 Build 0)  -->

<svg
   xmlns:dc="http://purl.org/dc/elements/1.1/"
   xmlns:cc="http://creativecommons.org/ns#"
   xmlns:rdf="http://www.w3.org/1999/02/22-rdf-syntax-ns#"
   xmlns:svg="http://www.w3.org/2000/svg"
   xmlns="http://www.w3.org/2000/svg"
   xmlns:sodipodi="http://sodipodi.sourceforge.net/DTD/sodipodi-0.dtd"
   xmlns:inkscape="http://www.inkscape.org/namespaces/inkscape"
   version="1.1"
   id="Layer_1"
   x="0px"
   y="0px"
   width="64px"
   height="64px"
   viewBox="0 0 64 64"
   enable-background="new 0 0 64 64"
   xml:space="preserve"
   inkscape:version="0.48.5 r10040"
   sodipodi:docname="1F38F.svg"
   inkscape:export-filename="D:\TESTINGEMOJI\SVGTEST\1F38F.png"
   inkscape:export-xdpi="90"
   inkscape:export-ydpi="90"><metadata
   id="metadata5829"><rdf:RDF><cc:Work
       rdf:about=""><dc:format>image/svg+xml</dc:format><dc:type
         rdf:resource="http://purl.org/dc/dcmitype/StillImage" /><dc:title></dc:title></cc:Work></rdf:RDF></metadata><defs
   id="defs5827" /><sodipodi:namedview
   pagecolor="#ffffff"
   bordercolor="#666666"
   borderopacity="1"
   objecttolerance="10"
   gridtolerance="10"
   guidetolerance="10"
   inkscape:pageopacity="0"
   inkscape:pageshadow="2"
   inkscape:window-width="640"
   inkscape:window-height="480"
   id="namedview5825"
   showgrid="false"
   inkscape:zoom="3.6875"
   inkscape:cx="32"
   inkscape:cy="32"
   inkscape:window-x="460"
   inkscape:window-y="274"
   inkscape:window-maximized="0"
   inkscape:current-layer="Layer_1" />
<g
   id="g5779">
	<path
   fill="#03786D"
   d="M32.112,35.146c-5.669-6.277,3.033-9.095,3.692-7.921C37.871,30.9,33.146,36.291,32.112,35.146z"
   id="path5781" />
	<path
   fill="#8873A5"
   d="M35.66,12.719c-7.123-7.502,3.813-10.873,4.645-9.469C42.898,7.644,36.962,14.09,35.66,12.719z"
   id="path5783" />
	<path
   fill="#9A85AF"
   d="M61.982,19.954c1.771-0.829-3.128-2.291-4.75-3.241c1.683-0.634,6.484-0.641,5.067-1.853   C55.231,8.804,42.952,6.264,32.73,6.922c-0.212,0.012,0.293,11.408,0.392,17.066C42.212,23.625,52.301,24.477,61.982,19.954z"
   id="path5785" />
	<path
   fill="#0B998B"
   d="M56.432,41.65c1.572-0.644-2.808-1.857-4.263-2.631c1.497-0.489,5.774-0.451,4.5-1.431   c-6.354-4.898-17.321-7.035-26.426-6.604c-0.188,0.008,0.365,9.105,0.502,13.625C38.847,44.402,47.845,45.171,56.432,41.65z"
   id="path5787" />
	<path
   fill="#AE92C4"
   d="M35.188,24.341c4.057-0.483,6.459-4.873,5.366-9.814c-1.091-4.941-5.263-8.551-9.321-8.07   c-4.056,0.483-13.174,5.672-12.082,10.612C20.244,22.01,31.13,24.823,35.188,24.341z"
   id="path5789" />
	<ellipse
   fill="#5F4589"
   cx="31.395"
   cy="13.419"
   rx="2.739"
   ry="2.435"
   id="ellipse5791" />
	<path
   fill="#04A69C"
   d="M32.143,44.867c3.226-0.402,5.139-4.076,4.27-8.21c-0.87-4.131-4.19-7.153-7.419-6.748   c-3.228,0.401-10.482,4.743-9.612,8.875C20.25,42.918,28.913,45.269,32.143,44.867z"
   id="path5793" />
	<ellipse
   fill="#25333A"
   cx="29.123"
   cy="35.731"
   rx="2.179"
   ry="2.038"
   id="ellipse5795" />
	<g
   id="g5797">
		<path
   fill="#D77F27"
   d="M21.022,62.426c0,0.853-0.946,1.544-2.118,1.544l0,0c-1.17,0-2.12-0.691-2.12-1.544V6.449    c0-0.852,0.95-1.543,2.12-1.543l0,0c1.172,0,2.118,0.691,2.118,1.543V62.426z"
   id="path5799" />
	</g>
	<g
   id="g5801">
		<path
   fill="#C1702A"
   d="M18.904,62.426V6.449c0-0.566,0.432-1.061,1.061-1.329c-0.313-0.131-0.673-0.214-1.061-0.214    c-1.17,0-2.12,0.691-2.12,1.543v55.977c0,0.853,0.95,1.544,2.12,1.544c0.388,0,0.748-0.081,1.061-0.216    C19.336,63.487,18.904,62.997,18.904,62.426z"
   id="path5803" />
	</g>
	<g
   id="g5805">
		<g
   id="g5807">
			<ellipse
   fill="#FFFFFF"
   cx="31.393"
   cy="13.42"
   rx="3.87"
   ry="4.412"
   id="ellipse5809" />
		</g>
		<g
   id="g5811">
			<ellipse
   fill="#25333A"
   cx="31.394"
   cy="13.42"
   rx="2.504"
   ry="2.311"
   id="ellipse5813" />
		</g>
	</g>
	<g
   id="g5815">
		<g
   id="g5817">
			<path
   fill="#FFFFFF"
   d="M32.992,35.733c0,2.438-1.73,4.41-3.865,4.41c-2.141,0-3.875-1.972-3.875-4.41     c0-2.438,1.733-4.413,3.875-4.413C31.262,31.321,32.992,33.296,32.992,35.733z"
   id="path5819" />
		</g>
		<g
   id="g5821">
			<path
   fill="#25333A"
   d="M31.628,35.733c0,1.274-1.12,2.311-2.5,2.311c-1.387,0-2.51-1.036-2.51-2.311     c0-1.277,1.123-2.31,2.51-2.31C30.508,33.424,31.628,34.456,31.628,35.733z"
   id="path5823" />
		</g>
	</g>
</g>
</svg>
